urcenter/urcenter/img/advantages/icon-1.svg

<svg width="58" height="58" viewBox="0 0 58 58" fill="none" xmlns="http://www.w3.org/2000/svg">
<g clip-path="url(#clip0)">
<path d="M38.557 18.5931C49.1474 18.4314 57.7912 26.7667 57.9963 37.3563C58.0264 38.9111 57.871 40.4244 57.5509 41.876C57.0087 44.3339 56.6864 46.835 56.6864 49.352V54.2172C56.6864 54.9626 56.0822 55.5668 55.3368 55.5668H50.4716C47.9546 55.5668 45.4535 55.8891 42.9956 56.4313C41.5441 56.7514 40.0308 56.9068 38.476 56.8767C27.8865 56.6718 19.5512 48.0282 19.7127 37.438C19.8703 27.1011 28.2202 18.751 38.557 18.5931Z" fill="url(#paint0_linear)" fill-opacity="0.5"/>
<path d="M21.2125 37.4609L21.2125 37.4609L57.5509 41.876L56.0861 41.5529C56.0861 41.5529 56.0861 41.5529 56.0861 41.553C55.525 44.0967 55.1864 46.7075 55.1864 49.352V54.0668H50.4716C47.827 54.0668 45.2163 54.4054 42.6725 54.9665C41.3358 55.2613 39.9407 55.4048 38.5051 55.377C28.7429 55.1881 21.0636 47.2266 21.2125 37.4609Z" stroke="#CDBBEF" stroke-opacity="0.2" stroke-width="3"/>
<path d="M23.6868 1.12245C10.7847 0.925341 0.254242 11.08 0.00434422 23.9811C-0.0322456 25.875 0.157047 27.7189 0.547187 29.4872C1.20762 32.4815 1.60025 35.5286 1.60025 38.595V44.5221C1.60025 45.4302 2.33635 46.1664 3.24452 46.1664H9.17161C12.2379 46.1664 15.2851 46.559 18.2794 47.2194C20.0477 47.6095 21.8915 47.7989 23.7854 47.7622C36.6863 47.5124 46.841 36.9822 46.6443 24.0804C46.4522 11.4873 36.2798 1.31469 23.6868 1.12245Z" fill="url(#paint1_linear)"/>
<path d="M12.346 29.2783C14.3413 29.2783 15.9587 27.6608 15.9587 25.6656C15.9587 23.6704 14.3413 22.053 12.346 22.053C10.3508 22.053 8.7334 23.6704 8.7334 25.6656C8.7334 27.6608 10.3508 29.2783 12.346 29.2783Z" fill="white"/>
<path d="M12.346 29.2783C14.3413 29.2783 15.9587 27.6608 15.9587 25.6656C15.9587 23.6704 14.3413 22.053 12.346 22.053C10.3508 22.053 8.7334 23.6704 8.7334 25.6656C8.7334 27.6608 10.3508 29.2783 12.346 29.2783Z" fill="url(#paint2_linear)"/>
<path d="M22.5631 29.2783C24.5583 29.2783 26.1757 27.6608 26.1757 25.6656C26.1757 23.6704 24.5583 22.053 22.5631 22.053C20.5678 22.053 18.9504 23.6704 18.9504 25.6656C18.9504 27.6608 20.5678 29.2783 22.5631 29.2783Z" fill="white"/>
<path d="M22.5631 29.2783C24.5583 29.2783 26.1757 27.6608 26.1757 25.6656C26.1757 23.6704 24.5583 22.053 22.5631 22.053C20.5678 22.053 18.9504 23.6704 18.9504 25.6656C18.9504 27.6608 20.5678 29.2783 22.5631 29.2783Z" fill="url(#paint3_linear)"/>
<path d="M32.7803 29.2783C34.7755 29.2783 36.3929 27.6608 36.3929 25.6656C36.3929 23.6704 34.7755 22.053 32.7803 22.053C30.7851 22.053 29.1676 23.6704 29.1676 25.6656C29.1676 27.6608 30.7851 29.2783 32.7803 29.2783Z" fill="white"/>
<path d="M32.7803 29.2783C34.7755 29.2783 36.3929 27.6608 36.3929 25.6656C36.3929 23.6704 34.7755 22.053 32.7803 22.053C30.7851 22.053 29.1676 23.6704 29.1676 25.6656C29.1676 27.6608 30.7851 29.2783 32.7803 29.2783Z" fill="url(#paint4_linear)"/>
</g>
<defs>
<linearGradient id="paint0_linear" x1="27.9689" y1="18.5908" x2="58" y2="18.5908" gradientUnits="userSpaceOnUse">
<stop stop-color="#E1D8FF"/>
<stop offset="1" stop-color="#F4ECFF"/>
</linearGradient>
<linearGradient id="paint1_linear" x1="10.0611" y1="1.11963" x2="46.6471" y2="1.11963" gradientUnits="userSpaceOnUse">
<stop stop-color="#E1D8FF"/>
<stop offset="1" stop-color="#F4ECFF"/>
</linearGradient>
<linearGradient id="paint2_linear" x1="12.346" y1="22.053" x2="12.346" y2="29.2783" gradientUnits="userSpaceOnUse">
<stop stop-color="#4614E8"/>
<stop offset="1" stop-color="#BCA7FF"/>
</linearGradient>
<linearGradient id="paint3_linear" x1="22.5631" y1="22.053" x2="22.5631" y2="29.2783" gradientUnits="userSpaceOnUse">
<stop stop-color="#4614E8"/>
<stop offset="1" stop-color="#BCA7FF"/>
</linearGradient>
<linearGradient id="paint4_linear" x1="32.7803" y1="22.053" x2="32.7803" y2="29.2783" gradientUnits="userSpaceOnUse">
<stop stop-color="#4614E8"/>
<stop offset="1" stop-color="#BCA7FF"/>
</linearGradient>
<clipPath id="clip0">
<rect width="58" height="58" fill="white"/>
</clipPath>
</defs>
</svg>

<svg width="58" height="58" fill="none" xmlns="http://www.w3.org/2000/svg"><g clip-path="url(#clip0)"><path d="M38.557 18.593a19.08 19.08 0 0119.44 18.763 19.236 19.236 0 01-.446 4.52c-.542 2.458-.865 4.959-.865 7.476v4.865a1.35 1.35 0 01-1.35 1.35h-4.864c-2.517 0-5.019.322-7.476.864a19.25 19.25 0 01-4.52.446 19.08 19.08 0 01-18.763-19.439c.157-10.337 8.507-18.687 18.844-18.845z" fill="url(#paint0_linear)" fill-opacity=".5"/><path d="M21.212 37.46h0l36.339 4.416-1.465-.323s0 0 0 0c-.561 2.544-.9 5.155-.9 7.799v4.715h-4.714c-2.645 0-5.256.338-7.8.9a17.733 17.733 0 01-4.167.41 17.58 17.58 0 01-17.293-17.916z" stroke="#CDBBEF" stroke-opacity=".2" stroke-width="3"/><path d="M23.687 1.122A23.245 23.245 0 00.004 23.982a23.43 23.43 0 00.543 5.505c.66 2.994 1.053 6.042 1.053 9.108v5.927c0 .908.736 1.644 1.645 1.644h5.927c3.066 0 6.113.393 9.107 1.053 1.769.39 3.613.58 5.506.543a23.245 23.245 0 0022.86-23.682C46.451 11.487 36.28 1.315 23.686 1.122z" fill="url(#paint1_linear)"/><path d="M12.346 29.278a3.613 3.613 0 100-7.225 3.613 3.613 0 000 7.225z" fill="#fff"/><path d="M12.346 29.278a3.613 3.613 0 100-7.225 3.613 3.613 0 000 7.225z" fill="url(#paint2_linear)"/><path d="M22.563 29.278a3.613 3.613 0 100-7.225 3.613 3.613 0 000 7.225z" fill="#fff"/><path d="M22.563 29.278a3.613 3.613 0 100-7.225 3.613 3.613 0 000 7.225z" fill="url(#paint3_linear)"/><path d="M32.78 29.278a3.613 3.613 0 100-7.225 3.613 3.613 0 000 7.225z" fill="#fff"/><path d="M32.78 29.278a3.613 3.613 0 100-7.225 3.613 3.613 0 000 7.225z" fill="url(#paint4_linear)"/></g><defs><linearGradient id="paint0_linear" x1="27.969" y1="18.591" x2="58" y2="18.591" gradientUnits="userSpaceOnUse"><stop stop-color="#E1D8FF"/><stop offset="1" stop-color="#F4ECFF"/></linearGradient><linearGradient id="paint1_linear" x1="10.061" y1="1.12" x2="46.647" y2="1.12" gradientUnits="userSpaceOnUse"><stop stop-color="#E1D8FF"/><stop offset="1" stop-color="#F4ECFF"/></linearGradient><linearGradient id="paint2_linear" x1="12.346" y1="22.053" x2="12.346" y2="29.278" gradientUnits="userSpaceOnUse"><stop stop-color="#4614E8"/><stop offset="1" stop-color="#BCA7FF"/></linearGradient><linearGradient id="paint3_linear" x1="22.563" y1="22.053" x2="22.563" y2="29.278" gradientUnits="userSpaceOnUse"><stop stop-color="#4614E8"/><stop offset="1" stop-color="#BCA7FF"/></linearGradient><linearGradient id="paint4_linear" x1="32.78" y1="22.053" x2="32.78" y2="29.278" gradientUnits="userSpaceOnUse"><stop stop-color="#4614E8"/><stop offset="1" stop-color="#BCA7FF"/></linearGradient><clipPath id="clip0"><path fill="#fff" d="M0 0h58v58H0z"/></clipPath></defs></svg>
